;START_OF_HEADER
;HEADER_VERSION:0.1
;FLAVOR:Griffin
;GENERATOR.NAME:Cura_SteamEngine
;GENERATOR.VERSION:main
;GENERATOR.BUILD_DATE:2022-07-19
;TARGET_MACHINE.NAME:Ultimaker 3
;EXTRUDER_TRAIN.0.INITIAL_TEMPERATURE:205
;EXTRUDER_TRAIN.0.MATERIAL.VOLUME_USED:5552
;EXTRUDER_TRAIN.0.MATERIAL.GUID:506c9f0d-e3aa-4bd4-b2d2-23e2425b1aa9
;EXTRUDER_TRAIN.0.NOZZLE.DIAMETER:0.4
;EXTRUDER_TRAIN.0.NOZZLE.NAME:AA 0.4
;BUILD_PLATE.TYPE:glass
;BUILD_PLATE.INITIAL_TEMPERATURE:50
;PRINT.TIME:3334
;PRINT.GROUPS:1
;PRINT.SIZE.MIN.X:9
;PRINT.SIZE.MIN.Y:6
;PRINT.SIZE.MIN.Z:0.27
;PRINT.SIZE.MAX.X:132.23
;PRINT.SIZE.MAX.Y:123.162
;PRINT.SIZE.MAX.Z:71.37
;END_OF_HEADER
;Generated with Cura_SteamEngine main
T0
M82 ;absolute extrusion mode

G92 E0
M109 S205
G0 F15000 X9 Y6 Z2
G280
G1 F1500 E-6.5
;LAYER_COUNT:475
;LAYER:0
M107
M204 S1000
M205 X20 Y20
G1 F600 Z2.27
G0 F3750 X105.074 Y96.855 Z2.27
G1 F600 Z0.27
G0 F3750 X100.905 Y107.521
;TYPE:SKIRT
G1 F1500 E0
G1 F1200 X100.934 Y106.488 E0.02099
G1 X101.038 Y105.445 E0.04229
G1 X101.178 Y104.603 E0.05963
G1 X101.284 Y104.089 E0.07029
G1 X101.474 Y103.314 E0.0865
G1 X101.8 Y102.279 E0.10855
G1 X102.176 Y101.314 E0.12959
G1 X102.615 Y100.377 E0.15061
G1 X103.126 Y99.457 E0.17199
G1 X103.71 Y98.554 E0.19383
G1 X104.343 Y97.703 E0.21538
G1 X105.074 Y96.855 E0.23813
G1 X105.8 Y96.121 E0.2591
G1 X106.578 Y95.436 E0.28016
G1 X107.467 Y94.751 E0.30296
G1 X108.305 Y94.191 E0.32343
G1 X109.094 Y93.74 E0.3419
G1 X109.56 Y93.496 E0.35258
G1 X110.249 Y93.169 E0.36808
G1 X111.191 Y92.788 E0.38872
G1 X112.267 Y92.439 E0.4117
G1 X113.385 Y92.162 E0.4351
G1 X114.407 Y91.984 E0.45617
G1 X115.458 Y91.874 E0.47764
G1 X116.547 Y91.838 E0.49978
G1 X117.579 Y91.867 E0.52075
G1 X118.622 Y91.971 E0.54204
G1 X119.464 Y92.111 E0.55939
G1 X119.978 Y92.217 E0.57005
G1 X120.753 Y92.407 E0.58626
G1 X121.788 Y92.733 E0.6083
G1 X122.753 Y93.109 E0.62934
G1 X123.69 Y93.547 E0.65036
G1 X124.614 Y94.061 E0.67184
G1 X125.513 Y94.643 E0.69359
G1 X126.364 Y95.276 E0.71514
G1 X127.212 Y96.007 E0.73788
G1 X127.946 Y96.733 E0.75886
G1 X128.631 Y97.511 E0.77992
G1 X129.316 Y98.4 E0.80272
G1 X129.876 Y99.238 E0.82319
G1 X130.327 Y100.027 E0.84165
G1 X130.573 Y100.498 E0.85245
G1 X130.898 Y101.184 E0.86787
G1 X131.179 Y101.874 E0.88301
G1 X131.356 Y102.358 E0.89348
G1 X131.632 Y103.212 E0.91171
G1 X131.844 Y104.067 E0.9296
G1 X131.947 Y104.557 E0.93978
G1 X132.081 Y105.329 E0.95569
G1 X132.166 Y106.136 E0.97218
G1 X132.201 Y106.636 E0.98236
G1 X132.23 Y107.501 E0.99994
G1 X132.193 Y108.601 E1.0223
G1 X132.093 Y109.571 E1.04211
G1 X131.956 Y110.396 E1.0591
G1 X131.85 Y110.911 E1.06979
G1 X131.66 Y111.686 E1.086
G1 X131.334 Y112.721 E1.10804
G1 X130.958 Y113.686 E1.12908
G1 X130.519 Y114.623 E1.1501
G1 X130.008 Y115.543 E1.17148
G1 X129.424 Y116.446 E1.19333
G1 X128.791 Y117.297 E1.21488
G1 X128.06 Y118.145 E1.23762
G1 X127.334 Y118.879 E1.25859
G1 X126.556 Y119.564 E1.27965
G1 X125.667 Y120.249 E1.30245
G1 X124.829 Y120.809 E1.32293
G1 X124.04 Y121.26 E1.34139
G1 X123.574 Y121.504 E1.35208
G1 X122.885 Y121.831 E1.36757
G1 X121.943 Y122.212 E1.38821
G1 X120.867 Y122.561 E1.41119
G1 X119.749 Y122.838 E1.43459
G1 X118.727 Y123.016 E1.45567
G1 X117.676 Y123.126 E1.47714
G1 X116.584 Y123.162 E1.49933
G1 X115.555 Y123.133 E1.52025
G1 X114.512 Y123.029 E1.54154
G1 X113.67 Y122.889 E1.55888
G1 X113.156 Y122.783 E1.56954
G1 X112.381 Y122.593 E1.58575
G1 X111.345 Y122.267 E1.60782
G1 X110.374 Y121.888 E1.62899
G1 X109.449 Y121.455 E1.64974
G1 X108.514 Y120.934 E1.67149
G1 X107.62 Y120.356 E1.69311
G1 X106.777 Y119.729 E1.71446
G1 X105.915 Y118.987 E1.73756
G1 X105.186 Y118.265 E1.75841
G1 X104.502 Y117.488 E1.77944
G1 X103.817 Y116.599 E1.80224
G1 X103.254 Y115.757 E1.82281
G1 X102.805 Y114.97 E1.84122
G1 X102.563 Y114.507 E1.85183
G1 X102.233 Y113.813 E1.86745
G1 X101.855 Y112.876 E1.88797
G1 X101.506 Y111.8 E1.91095
G1 X101.228 Y110.681 E1.93438
G1 X101.053 Y109.67 E1.95522
G1 X100.968 Y108.863 E1.97171
G1 X100.933 Y108.364 E1.98187
G1 X100.905 Y107.521 E1.999
G0 F3750 X101.385 Y107.519
G1 F1200 X101.414 Y106.521 E2.01929
G1 X101.514 Y105.508 E2.03997
G1 X101.693 Y104.435 E2.06207
G1 X101.935 Y103.449 E2.08269
G1 X102.254 Y102.433 E2.10433
G1 X102.615 Y101.508 E2.1245
G1 X103.041 Y100.599 E2.14489
G1 X103.539 Y99.702 E2.16574
G1 X104.105 Y98.828 E2.18689
G1 X104.718 Y98.004 E2.20775
G1 X105.427 Y97.18 E2.22984
G1 X106.135 Y96.466 E2.25026
G1 X106.881 Y95.808 E2.27047
G1 X107.746 Y95.142 E2.29265
G1 X108.568 Y94.593 E2.31273
G1 X109.541 Y94.036 E2.33551
G1 X110.44 Y93.609 E2.35573
G1 X111.351 Y93.241 E2.37569
G1 X112.404 Y92.899 E2.39818
G1 X113.487 Y92.631 E2.42085
G1 X114.48 Y92.459 E2.44132
G1 X115.478 Y92.354 E2.46171
G1 X116.549 Y92.318 E2.48348
G1 X117.545 Y92.347 E2.50372
G1 X118.559 Y92.447 E2.52442
G1 X119.632 Y92.626 E2.54652
G1 X120.618 Y92.868 E2.56714
G1 X121.634 Y93.187 E2.58878
G1 X122.559 Y93.548 E2.60895
G1 X123.471 Y93.975 E2.62941
G1 X124.376 Y94.479 E2.65045
G1 X125.231 Y95.032 E2.67114
G1 X126.063 Y95.651 E2.6922
G1 X126.887 Y96.36 E2.71429
G1 X127.601 Y97.068 E2.73472
G1 X128.259 Y97.814 E2.75492
G1 X128.925 Y98.679 E2.7771
G1 X129.474 Y99.501 E2.79718
G1 X130.032 Y100.477 E2.82002
G1 X130.46 Y101.378 E2.84029
G1 X130.825 Y102.276 E2.85998
G1 X131.17 Y103.346 E2.88282
G1 X131.434 Y104.41 E2.90509
G1 X131.606 Y105.402 E2.92554
G1 X131.713 Y106.414 E2.94622
G1 X131.749 Y107.501 E2.96831
G1 X131.713 Y108.578 E2.9902
G1 X131.619 Y109.491 E3.00885
G1 X131.441 Y110.566 E3.03099
G1 X131.199 Y111.551 E3.05159
G1 X130.88 Y112.567 E3.07323
G1 X130.519 Y113.492 E3.0934
G1 X130.093 Y114.401 E3.11379
G1 X129.595 Y115.298 E3.13464
G1 X129.029 Y116.172 E3.15579
G1 X128.416 Y116.996 E3.17665
G1 X127.707 Y117.82 E3.19874
G1 X126.999 Y118.534 E3.21916
G1 X126.253 Y119.192 E3.23937
G1 X125.388 Y119.858 E3.26155
G1 X124.566 Y120.407 E3.28163
G1 X123.593 Y120.964 E3.30441
G1 X122.694 Y121.391 E3.32463
G1 X121.783 Y121.759 E3.34459
G1 X120.73 Y122.101 E3.36708
G1 X119.647 Y122.369 E3.38975
G1 X118.654 Y122.541 E3.41022
G1 X117.656 Y122.646 E3.43061
G1 X116.582 Y122.682 E3.45244
G1 X115.588 Y122.653 E3.47264
G1 X114.575 Y122.553 E3.49332
G1 X113.502 Y122.374 E3.51542
G1 X112.516 Y122.132 E3.53604
G1 X111.502 Y121.813 E3.55764
G1 X110.574 Y121.452 E3.57787
G1 X109.653 Y121.02 E3.59853
G1 X108.764 Y120.525 E3.61921
G1 X107.901 Y119.967 E3.64008
G1 X107.064 Y119.343 E3.66129
G1 X106.248 Y118.64 E3.68317
G1 X105.532 Y117.931 E3.70364
G1 X104.874 Y117.185 E3.72385
G1 X104.208 Y116.321 E3.74601
G1 X103.662 Y115.502 E3.76601
G1 X103.103 Y114.524 E3.7889
G1 X102.67 Y113.614 E3.80937
G1 X102.308 Y112.717 E3.82902
G1 X101.966 Y111.663 E3.85153
G1 X101.698 Y110.579 E3.87422
G1 X101.528 Y109.597 E3.89446
G1 X101.421 Y108.587 E3.9151
G1 X101.385 Y107.519 E3.93681
G0 F3750 X101.865 Y107.516
G1 F1200 X101.892 Y106.556 E3.95632
G1 X101.989 Y105.575 E3.97634
G1 X102.163 Y104.534 E3.99778
G1 X102.395 Y103.588 E4.01757
G1 X102.709 Y102.589 E4.03885
G1 X103.054 Y101.703 E4.05816
G1 X103.474 Y100.807 E4.07827
G1 X103.953 Y99.947 E4.09826
G1 X104.492 Y99.111 E4.11847
G1 X105.096 Y98.301 E4.139
G1 X105.778 Y97.508 E4.16025
G1 X106.463 Y96.816 E4.18003
G1 X107.194 Y96.173 E4.19981
G1 X108.021 Y95.535 E4.22103
G1 X108.822 Y95.001 E4.24058
G1 X109.759 Y94.465 E4.26251
G1 X110.639 Y94.046 E4.28231
G1 X111.515 Y93.693 E4.3015
G1 X112.552 Y93.357 E4.32365
G1 X113.571 Y93.104 E4.34498
G1 X114.538 Y92.936 E4.36491
G1 X115.533 Y92.832 E4.38524
G1 X116.551 Y92.798 E4.40593
G1 X117.511 Y92.825 E4.42544
G1 X118.492 Y92.922 E4.44547
G1 X119.533 Y93.096 E4.46691
G1 X120.479 Y93.328 E4.4867
G1 X121.478 Y93.642 E4.50797
G1 X122.364 Y93.987 E4.52729
G1 X123.259 Y94.406 E4.54736
G1 X124.126 Y94.889 E4.56753
G1 X124.964 Y95.431 E4.5878
G1 X125.758 Y96.021 E4.6079
G1 X126.559 Y96.711 E4.62937
G1 X127.251 Y97.396 E4.64916
G1 X127.894 Y98.127 E4.66893
G1 X128.532 Y98.954 E4.69015
G1 X129.066 Y99.755 E4.70971
G1 X129.605 Y100.697 E4.73176
G1 X130.02 Y101.572 E4.75143
G1 X130.375 Y102.445 E4.77058
G1 X130.707 Y103.476 E4.79258
G1 X130.964 Y104.51 E4.81423
G1 X131.131 Y105.473 E4.83408
G1 X131.235 Y106.451 E4.85406
G1 X131.27 Y107.501 E4.87541
G1 X131.235 Y108.529 E4.8963
G1 X131.141 Y109.442 E4.91495
G1 X130.971 Y110.467 E4.93606
G1 X130.739 Y111.412 E4.95583
G1 X130.425 Y112.411 E4.9771
G1 X130.08 Y113.297 E4.99642
G1 X129.66 Y114.193 E5.01652
G1 X129.181 Y115.053 E5.03652
G1 X128.642 Y115.889 E5.05672
G1 X128.038 Y116.699 E5.07725
G1 X127.356 Y117.492 E5.0985
G1 X126.671 Y118.184 E5.11828
G1 X125.94 Y118.827 E5.13806
G1 X125.113 Y119.465 E5.15928
G1 X124.312 Y119.999 E5.17884
G1 X123.375 Y120.535 E5.20077
G1 X122.495 Y120.954 E5.22057
G1 X121.619 Y121.307 E5.23975
G1 X120.582 Y121.643 E5.2619
G1 X119.563 Y121.896 E5.28323
G1 X118.596 Y122.064 E5.30317
G1 X117.602 Y122.168 E5.32347
G1 X116.579 Y122.202 E5.34427
G1 X115.623 Y122.175 E5.3637
G1 X114.642 Y122.078 E5.38372
G1 X113.601 Y121.904 E5.40516
G1 X112.655 Y121.672 E5.42495
G1 X111.653 Y121.357 E5.44629
G1 X110.764 Y121.01 E5.46568
G1 X109.885 Y120.599 E5.48539
G1 X109.003 Y120.108 E5.5059
G1 X108.176 Y119.573 E5.52591
G1 X107.363 Y118.967 E5.54651
G1 X106.576 Y118.289 E5.56761
G1 X105.884 Y117.605 E5.58738
G1 X105.239 Y116.872 E5.60721
G1 X104.601 Y116.045 E5.62843
G1 X104.064 Y115.24 E5.64809
G1 X103.529 Y114.304 E5.66999
G1 X103.113 Y113.429 E5.68968
G1 X102.76 Y112.554 E5.70884
G1 X102.424 Y111.515 E5.73103
G1 X102.17 Y110.494 E5.7524
G1 X102.003 Y109.526 E5.77236
G1 X101.899 Y108.546 E5.79238
G1 X101.865 Y107.516 E5.81331
G0 F3750 X102.345 Y107.514
G1 F1200 X102.372 Y106.585 E5.8322
G1 X102.466 Y105.64 E5.85149
G1 X102.633 Y104.636 E5.87217
G1 X102.86 Y103.709 E5.89155
G1 X103.165 Y102.739 E5.91221
G1 X103.499 Y101.884 E5.93086
G1 X103.897 Y101.032 E5.94996
G1 X104.359 Y100.203 E5.96924
G1 X104.891 Y99.378 E5.98919
G1 X105.469 Y98.602 E6.00884
G1 X106.13 Y97.836 E6.0294
G1 X106.788 Y97.17 E6.04842
G1 X107.505 Y96.539 E6.06782
G1 X108.305 Y95.922 E6.08835
G1 X109.067 Y95.414 E6.10695
G1 X109.989 Y94.886 E6.12854
G1 X110.824 Y94.489 E6.14732
G1 X111.685 Y94.142 E6.16618
G1 X112.675 Y93.821 E6.18732
G1 X113.67 Y93.574 E6.20815
G1 X114.61 Y93.411 E6.22753
G1 X115.553 Y93.312 E6.24679
G1 X116.555 Y93.278 E6.26716
G1 X117.482 Y93.305 E6.286
G1 X118.427 Y93.399 E6.30529
G1 X119.431 Y93.566 E6.32597
G1 X120.358 Y93.793 E6.34536
G1 X121.328 Y94.098 E6.36602
G1 X122.183 Y94.432 E6.38466
G1 X123.034 Y94.83 E6.40375
G1 X123.87 Y95.295 E6.42318
G1 X124.689 Y95.825 E6.443
G1 X125.462 Y96.4 E6.46257
G1 X126.231 Y97.063 E6.4832
G1 X126.897 Y97.721 E6.50222
G1 X127.528 Y98.438 E6.52162
G1 X128.145 Y99.238 E6.54215
G1 X128.653 Y100 E6.56075
G1 X129.18 Y100.921 E6.58231
G1 X129.577 Y101.758 E6.60113
G1 X129.923 Y102.609 E6.61979
G1 X130.247 Y103.613 E6.64123
G1 X130.494 Y104.609 E6.66207
G1 X130.654 Y105.531 E6.68108
G1 X130.756 Y106.491 E6.7007
G1 X130.789 Y107.501 E6.72123
G1 X130.756 Y108.503 E6.74159
G1 X130.667 Y109.366 E6.75922
G1 X130.501 Y110.366 E6.77981
G1 X130.274 Y111.291 E6.79916
G1 X129.969 Y112.261 E6.81982
G1 X129.635 Y113.116 E6.83847
G1 X129.237 Y113.968 E6.85757
G1 X128.775 Y114.797 E6.87685
G1 X128.243 Y115.622 E6.89679
G1 X127.665 Y116.398 E6.91645
G1 X127.004 Y117.164 E6.937
G1 X126.346 Y117.83 E6.95602
G1 X125.629 Y118.461 E6.97543
G1 X124.829 Y119.078 E6.99595
G1 X124.067 Y119.586 E7.01456
G1 X123.145 Y120.114 E7.03614
G1 X122.31 Y120.511 E7.05493
G1 X121.449 Y120.858 E7.07378
G1 X120.459 Y121.179 E7.09493
G1 X119.464 Y121.426 E7.11575
G1 X118.524 Y121.589 E7.13514
G1 X117.58 Y121.688 E7.15442
G1 X116.577 Y121.722 E7.17481
G1 X115.652 Y121.695 E7.19361
G1 X114.707 Y121.601 E7.2129
G1 X113.703 Y121.434 E7.23358
G1 X112.776 Y121.207 E7.25297
G1 X111.806 Y120.902 E7.27362
G1 X110.964 Y120.573 E7.29199
G1 X110.09 Y120.164 E7.31159
G1 X109.26 Y119.702 E7.33089
G1 X108.443 Y119.174 E7.35065
G1 X107.67 Y118.598 E7.37024
G1 X106.902 Y117.937 E7.39082
G1 X106.234 Y117.276 E7.40991
G1 X105.605 Y116.561 E7.42926
G1 X104.988 Y115.761 E7.44978
G1 X104.477 Y114.995 E7.46849
G1 X103.956 Y114.083 E7.48983
G1 X103.548 Y113.224 E7.50915
G1 X103.211 Y112.39 E7.52742
G1 X102.887 Y111.39 E7.54878
G1 X102.641 Y110.395 E7.5696
G1 X102.48 Y109.468 E7.58871
G1 X102.378 Y108.509 E7.6083
G1 X102.345 Y107.514 E7.62853
G0 F3750 X102.826 Y107.511
G1 F1200 X102.851 Y106.621 E7.64662
G1 X102.943 Y105.692 E7.66558
G1 X103.102 Y104.737 E7.68525
G1 X103.322 Y103.84 E7.70401
G1 X103.615 Y102.91 E7.72382
G1 X103.944 Y102.067 E7.74221
G1 X104.325 Y101.251 E7.7605
G1 X104.77 Y100.451 E7.7791
G1 X105.289 Y99.649 E7.79851
G1 X105.843 Y98.904 E7.81737
G1 X106.489 Y98.155 E7.83746
G1 X107.116 Y97.521 E7.85558
G1 X107.809 Y96.911 E7.87433
G1 X108.581 Y96.315 E7.89415
G1 X109.313 Y95.827 E7.91202
G1 X110.216 Y95.31 E7.93316
G1 X111.029 Y94.924 E7.95144
G1 X111.838 Y94.597 E7.96917
G1 X112.81 Y94.282 E7.98992
G1 X113.773 Y94.043 E8.01008
G1 X114.666 Y93.888 E8.02849
G1 X115.594 Y93.791 E8.04745
G1 X116.557 Y93.759 E8.06702
G1 X117.446 Y93.784 E8.08509
G1 X118.375 Y93.876 E8.10406
G1 X119.33 Y94.035 E8.12373
G1 X120.227 Y94.255 E8.14249
G1 X121.157 Y94.548 E8.1623
G1 X122 Y94.877 E8.18068
G1 X122.818 Y95.259 E8.19902
G1 X123.624 Y95.708 E8.21777
G1 X124.422 Y96.224 E8.23707
G1 X125.157 Y96.771 E8.25568
G1 X125.912 Y97.422 E8.27594
G1 X126.546 Y98.049 E8.29405
G1 X127.156 Y98.742 E8.31281
G1 X127.752 Y99.514 E8.33262
G1 X128.24 Y100.246 E8.35049
G1 X128.761 Y101.157 E8.37181
G1 X129.141 Y101.958 E8.38982
G1 X129.468 Y102.761 E8.40744
G1 X129.784 Y103.742 E8.42838
G1 X130.025 Y104.711 E8.44866
G1 X130.179 Y105.6 E8.46699
G1 X130.276 Y106.516 E8.4857
G1 X130.309 Y107.501 E8.50573
G1 X130.276 Y108.469 E8.5254
G1 X130.189 Y109.317 E8.54272
G1 X130.032 Y110.264 E8.56222
G1 X129.812 Y111.16 E8.58097
G1 X129.519 Y112.09 E8.60077
G1 X129.19 Y112.933 E8.61916
G1 X128.809 Y113.749 E8.63745
G1 X128.364 Y114.549 E8.65605
G1 X127.845 Y115.351 E8.67546
G1 X127.291 Y116.096 E8.69432
G1 X126.645 Y116.845 E8.71441
G1 X126.018 Y117.479 E8.73253
G1 X125.325 Y118.089 E8.75128
G1 X124.553 Y118.685 E8.7711
G1 X123.821 Y119.173 E8.78897
G1 X122.918 Y119.69 E8.81011
G1 X122.105 Y120.076 E8.82839
G1 X121.296 Y120.403 E8.84612
G1 X120.324 Y120.718 E8.86688
G1 X119.361 Y120.957 E8.88703
G1 X118.468 Y121.112 E8.90545
G1 X117.539 Y121.209 E8.92442
G1 X116.575 Y121.241 E8.94402
G1 X115.688 Y121.216 E8.96204
G1 X114.759 Y121.124 E8.98101
G1 X113.804 Y120.965 E9.00068
G1 X112.907 Y120.745 E9.01944
G1 X111.979 Y120.453 E9.0392
G1 X111.127 Y120.121 E9.05778
G1 X110.317 Y119.741 E9.07596
G1 X109.51 Y119.292 E9.09472
G1 X108.718 Y118.78 E9.11388
G1 X107.976 Y118.227 E9.13268
G1 X107.214 Y117.571 E9.1531
G1 X106.585 Y116.948 E9.17109
G1 X105.977 Y116.257 E9.18979
G1 X105.381 Y115.485 E9.2096
G1 X104.886 Y114.743 E9.22772
G1 X104.378 Y113.853 E9.24854
G1 X103.991 Y113.039 E9.26685
G1 X103.665 Y112.231 E9.28455
G1 X103.349 Y111.258 E9.30533
G1 X103.11 Y110.292 E9.32555
G1 X102.955 Y109.399 E9.34396
G1 X102.858 Y108.481 E9.36272
G1 X102.826 Y107.511 E9.38243
G0 F3750 X103.306 Y107.509
G1 F1200 X103.331 Y106.638 E9.40014
G1 X103.417 Y105.772 E9.41782
G1 X103.574 Y104.826 E9.4373
G1 X103.786 Y103.96 E9.45541
G1 X104.065 Y103.076 E9.47424
G1 X104.383 Y102.261 E9.49201
G1 X104.755 Y101.465 E9.50986
G1 X105.181 Y100.701 E9.52764
G1 X105.681 Y99.925 E9.54639
G1 X106.221 Y99.201 E9.56474
G1 X106.841 Y98.481 E9.58404
G1 X107.443 Y97.873 E9.60142
G1 X108.121 Y97.276 E9.61978
G1 X108.859 Y96.707 E9.63871
G1 X109.575 Y96.229 E9.6562
G1 X110.436 Y95.737 E9.67634
G1 X111.214 Y95.367 E9.69384
G1 X112.01 Y95.045 E9.71129
G1 X112.935 Y94.745 E9.73104
G1 X113.874 Y94.513 E9.75069
G1 X114.739 Y94.363 E9.76853
G1 X115.616 Y94.271 E9.78644
G1 X116.559 Y94.239 E9.80561
G1 X117.429 Y94.264 E9.82329
G1 X118.295 Y94.35 E9.84097
G1 X119.241 Y94.507 E9.86045
G1 X120.107 Y94.719 E9.87857
G1 X120.991 Y94.998 E9.8974
G1 X121.806 Y95.316 E9.91517
G1 X122.601 Y95.688 E9.933
G1 X123.376 Y96.119 E9.95102
G1 X124.144 Y96.617 E9.96961
G1 X124.857 Y97.146 E9.98765
G1 X125.586 Y97.774 E10.0072
G1 X126.194 Y98.376 E10.02458
